picto/stands-y-en-small.svg

<svg class="color-immutable" width="24" height="24" viewBox="0 0 24 24" fill="none" xmlns="http://www.w3.org/2000/svg"><path d="M0 22.5V1.5C0 0.675 0.675 0 1.5 0H22.5C23.325 0 24 0.675 24 1.5V22.5C24 23.325 23.325 24 22.5 24H1.5C0.675 24 0 23.325 0 22.5Z" fill="#2D327D"/><path d="M17.422 9.757L13.231 16.663V21H10.778V16.632L6.578 9.757H9.385L12.023 14.379L14.676 9.757H17.422Z" fill="white"/><path d="M4.886 3.666H4.418C4.409 3.556 4.368 3.472 4.296 3.415C4.224 3.358 4.122 3.328 3.992 3.328C3.876 3.328 3.786 3.351 3.722 3.396C3.658 3.442 3.626 3.506 3.626 3.588C3.626 3.662 3.657 3.715 3.718 3.748C3.778 3.78 3.929 3.826 4.17 3.886C4.425 3.95 4.602 4.014 4.701 4.078C4.882 4.197 4.973 4.363 4.973 4.575C4.973 4.808 4.882 4.991 4.699 5.126C4.539 5.244 4.321 5.303 4.046 5.303C3.74 5.303 3.503 5.233 3.334 5.094C3.165 4.954 3.077 4.755 3.071 4.498H3.56C3.567 4.623 3.599 4.716 3.657 4.776C3.747 4.872 3.883 4.921 4.065 4.921C4.188 4.921 4.285 4.897 4.357 4.849C4.438 4.794 4.479 4.718 4.479 4.623C4.479 4.528 4.421 4.458 4.307 4.413C4.245 4.389 4.097 4.344 3.864 4.28C3.719 4.24 3.605 4.202 3.523 4.166C3.441 4.13 3.375 4.09 3.326 4.046C3.211 3.943 3.154 3.802 3.154 3.621C3.154 3.405 3.244 3.233 3.423 3.107C3.576 3 3.774 2.946 4.018 2.946C4.232 2.946 4.412 2.989 4.556 3.074C4.765 3.196 4.874 3.393 4.886 3.666Z" fill="white"/><path d="M6.139 3.566V3.881H5.805V4.67C5.805 4.764 5.814 4.824 5.831 4.85C5.857 4.887 5.914 4.905 6.003 4.905C6.038 4.905 6.083 4.902 6.138 4.897V5.254C6.038 5.265 5.945 5.271 5.861 5.271C5.734 5.271 5.637 5.257 5.57 5.228C5.466 5.182 5.402 5.098 5.376 4.976C5.365 4.924 5.359 4.816 5.359 4.651V3.881H5.089V3.566H5.361V3.172H5.806V3.566H6.139Z" fill="white"/><path d="M7.91701 5.249H7.46201C7.44301 5.183 7.43301 5.12699 7.43301 5.08099C7.29401 5.22399 7.11401 5.295 6.89301 5.295C6.72101 5.295 6.58601 5.255 6.49001 5.175C6.37901 5.083 6.32401 4.95399 6.32401 4.789C6.32401 4.57899 6.41901 4.433 6.60901 4.352C6.68601 4.319 6.82701 4.289 7.03401 4.261C7.21001 4.238 7.32101 4.21499 7.36401 4.19299C7.40701 4.17099 7.43001 4.12599 7.43001 4.05999C7.43001 3.91299 7.33301 3.83999 7.13801 3.83999C7.03401 3.83999 6.959 3.85799 6.91101 3.89499C6.86301 3.93199 6.83101 3.99599 6.81601 4.08699H6.39501C6.40801 3.90099 6.47801 3.75999 6.60501 3.66499C6.73201 3.56999 6.913 3.52299 7.14801 3.52299C7.40701 3.52299 7.59901 3.57599 7.72301 3.68099C7.78101 3.73099 7.81901 3.78299 7.83801 3.83999C7.85701 3.89599 7.86601 3.98599 7.86601 4.10799C7.86601 4.13399 7.86401 4.246 7.86101 4.446C7.86001 4.648 7.85901 4.764 7.85901 4.793C7.85901 4.915 7.86301 5.00399 7.87001 5.06099C7.87701 5.11899 7.89301 5.181 7.91701 5.249ZM7.42701 4.438C7.36901 4.474 7.26501 4.50199 7.11301 4.52299C7.00601 4.53899 6.92901 4.55999 6.88201 4.58599C6.81501 4.62199 6.78201 4.683 6.78201 4.769C6.78201 4.839 6.80401 4.893 6.84801 4.932C6.89201 4.971 6.95401 4.98999 7.03301 4.98999C7.16401 4.98999 7.27001 4.944 7.35101 4.852C7.38001 4.82 7.40001 4.78699 7.41001 4.75299C7.42101 4.71899 7.42601 4.673 7.42601 4.617V4.438H7.42701Z" fill="white"/><path d="M8.63099 3.574V3.809C8.68299 3.737 8.73199 3.684 8.77699 3.651C8.88799 3.565 9.02099 3.522 9.17699 3.522C9.31399 3.522 9.43099 3.557 9.52599 3.627C9.60199 3.682 9.65499 3.752 9.68499 3.837C9.71499 3.922 9.72999 4.041 9.72999 4.195V5.25H9.28599V4.287C9.28599 4.179 9.27699 4.1 9.25799 4.05C9.24099 4.006 9.21099 3.972 9.16899 3.946C9.12099 3.918 9.06599 3.904 9.00499 3.904C8.93699 3.904 8.87599 3.92 8.81999 3.953C8.76499 3.986 8.72399 4.031 8.69699 4.087C8.66699 4.151 8.65199 4.25 8.65199 4.384V5.248H8.20599V3.574H8.63099Z" fill="white"/><path d="M11.659 3V5.249H11.233V5.029C11.135 5.206 10.971 5.295 10.742 5.295C10.514 5.295 10.333 5.211 10.199 5.044C10.068 4.881 10.002 4.666 10.002 4.4C10.002 4.149 10.06 3.945 10.176 3.789C10.309 3.609 10.49 3.518 10.717 3.518C10.94 3.518 11.105 3.604 11.214 3.775V3H11.659ZM10.833 3.884C10.718 3.884 10.626 3.927 10.558 4.013C10.487 4.103 10.452 4.23 10.452 4.394C10.452 4.554 10.487 4.681 10.557 4.775C10.624 4.865 10.718 4.91 10.842 4.91C10.966 4.91 11.06 4.865 11.128 4.776C11.196 4.687 11.23 4.561 11.23 4.399C11.23 4.23 11.194 4.101 11.122 4.011C11.05 3.927 10.954 3.884 10.833 3.884Z" fill="white"/></svg>

<svg class="color-immutable" width="24" height="24" viewBox="0 0 24 24" fill="none" xmlns="http://www.w3.org/2000/svg"><g clip-path="url(#a)"><path d="M0 22.5v-21C0 .675.675 0 1.5 0h21c.825 0 1.5.675 1.5 1.5v21c0 .825-.675 1.5-1.5 1.5h-21C.675 24 0 23.325 0 22.5Z" fill="#2D327D"/><path d="m17.422 9.757-4.191 6.906V21h-2.453v-4.368l-4.2-6.875h2.807l2.638 4.622 2.653-4.622h2.746ZM4.886 3.666h-.468a.34.34 0 0 0-.122-.251.48.48 0 0 0-.304-.087.464.464 0 0 0-.27.068.223.223 0 0 0-.096.192c0 .074.031.127.092.16.06.032.211.078.452.138.255.064.432.128.531.192a.564.564 0 0 1 .272.497.647.647 0 0 1-.274.551c-.16.118-.378.177-.653.177-.306 0-.543-.07-.712-.209-.169-.14-.257-.339-.263-.596h.489c.007.125.039.218.097.278.09.096.226.145.408.145a.52.52 0 0 0 .292-.072.26.26 0 0 0 .122-.226c0-.095-.058-.165-.172-.21a6.039 6.039 0 0 0-.443-.133 2.623 2.623 0 0 1-.341-.114.74.74 0 0 1-.197-.12.54.54 0 0 1-.172-.425c0-.216.09-.388.269-.514.153-.107.351-.161.595-.161.214 0 .394.043.538.128.209.122.318.319.33.592ZM6.139 3.566v.315h-.334v.789c0 .094.009.154.026.18.026.037.083.055.172.055.035 0 .08-.003.135-.008v.357c-.1.011-.193.017-.277.017a.762.762 0 0 1-.291-.043.332.332 0 0 1-.194-.252 1.954 1.954 0 0 1-.017-.325v-.77h-.27v-.315h.272v-.394h.445v.394h.333ZM7.917 5.249h-.455a.629.629 0 0 1-.029-.168.72.72 0 0 1-.54.214c-.172 0-.307-.04-.403-.12a.474.474 0 0 1-.166-.386c0-.21.095-.356.285-.437.077-.033.218-.063.425-.091.176-.023.287-.046.33-.068.043-.022.066-.067.066-.133 0-.147-.097-.22-.292-.22-.104 0-.179.018-.227.055-.048.037-.08.101-.095.192h-.421a.545.545 0 0 1 .21-.422c.127-.095.308-.142.543-.142.259 0 .451.053.575.158.058.05.096.102.115.159a.915.915 0 0 1 .028.268l-.005.338-.002.347c0 .122.004.211.011.268a.89.89 0 0 0 .047.188Zm-.49-.811a.875.875 0 0 1-.314.085.734.734 0 0 0-.231.063c-.067.036-.1.097-.1.183 0 .07.022.124.066.163a.27.27 0 0 0 .185.058.403.403 0 0 0 .318-.138.258.258 0 0 0 .059-.099.46.46 0 0 0 .016-.136v-.179h.001ZM8.631 3.574v.235a.633.633 0 0 1 .546-.287c.137 0 .254.035.349.105a.432.432 0 0 1 .159.21c.03.085.045.204.045.358V5.25h-.444v-.963a.722.722 0 0 0-.028-.237.21.21 0 0 0-.089-.104.356.356 0 0 0-.349.007.312.312 0 0 0-.123.134.738.738 0 0 0-.045.297v.864h-.446V3.574h.425ZM11.659 3v2.249h-.426v-.22c-.098.177-.262.266-.491.266a.66.66 0 0 1-.543-.251c-.131-.163-.197-.378-.197-.644 0-.251.058-.455.174-.611a.64.64 0 0 1 .541-.271c.223 0 .388.086.497.257V3h.445Zm-.826.884a.333.333 0 0 0-.275.129c-.071.09-.106.217-.106.381 0 .16.035.287.105.381.067.09.161.135.285.135a.338.338 0 0 0 .286-.134c.068-.089.102-.215.102-.377 0-.169-.036-.298-.108-.388a.362.362 0 0 0-.289-.127Z" fill="#fff"/></g><defs><clipPath id="a"><path fill="#fff" d="M0 0h24v24H0z"/></clipPath></defs></svg>
